(Clueboard wooden case)
(2015 Oct 3, Zach White, Clueboard)
( *** UNPROVEN PROGRAM *** )
( Origin: Top left of stock )
( Material: Hardwood )
( Tool: 1/4" 2 flute straight endmill )

(Defaults:)
G17 G21 G40 G49 G80 G90 G94 G54

(Start by going to 0,0,5. Hope you homed the machine first.)
G0 Z5
G0 X0 Y0

(Go to the rough cut position)
G0 X33 Y-36.175
G1 Z-30

(Do finishing cuts around the edge)
G1 X31 Y-34.175
G1 X336
G1 Y-121.175
G1 X31
G1 Y-34.175
G1 X29 Y-32.175
G1 X338
G1 Y-123.175
G1 X29
G1 Y-32.175
G1 X27 Y-30.175
G1 X340
G1 Y-125.175
G1 X27
G1 Y-30.175
(Route around the edge 12mm to make room for the plate)
G1 Z-18.75
G1 X31 Y-34.175
G1 X336
G1 Y-121.175
G1 X31
G1 Y-34.175
G1 X29 Y-32.175
G1 X338
G1 Y-123.175
G1 X29
G1 Y-32.175
G1 X27 Y-30.175
G1 X340
G1 Y-125.175
G1 X27
G1 Y-30.175
G1 X25 Y-28.175
G1 X342
G1 Y-127.175
G1 X25
G1 Y-28.175
G1 X23 Y-26.175
G1 X344
G1 Y-129.175
G1 X23
G1 Y-26.175
G1 X21 Y-24.175
G1 X346
G1 Y-131.175
G1 X21
G1 Y-24.175
(End at the 0,0 for the next board)
G0 Z5
G0 X364 Y0 Z100
M30
