(Clueboard wooden case)
(2015 Oct 3, Zach White, Clueboard)
( *** UNPROVEN PROGRAM *** )
( Origin: Top left of stock )
( Material: Hardwood )
( Tool: 1/4" upcarve endmill )

(Defaults:)
G17 G21 G40 G49 G80 G90 G94 G54

(Start by going to 0,0,15. Hope you homed the machine first.)
G0 Z5
G0 X0 Y0

(Draw the box that needs to be cut out)
G0 X20 Y-23.175
G1 Z-1 F60
G1 X323 F60
G1 Y-108.175 F60
G1 X20 F60
G1 Y-23.175 F60

(Lather, rinse, repeat, until we're through the box)
G1 Z-1 F60
G1 X323 F60
G1 Y-108.175 F60
G1 X20 F60
G1 Y-23.175 F60
G1 Z-2 F60
G1 X323 F60
G1 Y-108.175 F60
G1 X20 F60
G1 Y-23.175 F60
G1 Z-3 F60
G1 X323 F60
G1 Y-108.175 F60
G1 X20 F60
G1 Y-23.175 F60
G1 Z-4 F60
G1 X323 F60
G1 Y-108.175 F60
G1 X20 F60
G1 Y-23.175 F60
G1 Z-5 F60
G1 X323 F60
G1 Y-108.175 F60
G1 X20 F60
G1 Y-23.175 F60
G1 Z-6 F60
G1 X323 F60
G1 Y-108.175 F60
G1 X20 F60
G1 Y-23.175 F60
G1 Z-7 F60
G1 X323 F60
G1 Y-108.175 F60
G1 X20 F60
G1 Y-23.175 F60
G1 Z-8 F60
G1 X323 F60
G1 Y-108.175 F60
G1 X20 F60
G1 Y-23.175 F60
G1 Z-9 F60
G1 X323 F60
G1 Y-108.175 F60
G1 X20 F60
G1 Y-23.175 F60
G1 Z-10 F60
G1 X323 F60
G1 Y-108.175 F60
G1 X20 F60
G1 Y-23.175 F60
G1 Z-11 F60
G1 X323 F60
G1 Y-108.175 F60
G1 X20 F60
G1 Y-23.175 F60
G1 Z-12 F60
G1 X323 F60
G1 Y-108.175 F60
G1 X20 F60
G1 Y-23.175 F60
G1 Z-13 F60
G1 X323 F60
G1 Y-108.175 F60
G1 X20 F60
G1 Y-23.175 F60
G1 Z-14 F60
G1 X323 F60
G1 Y-108.175 F60
G1 X20 F60
G1 Y-23.175 F60
G1 Z-15 F60
G1 X323 F60
G1 Y-108.175 F60
G1 X20 F60
G1 Y-23.175 F60
G1 Z-16 F60
G1 X323 F60
G1 Y-108.175 F60
G1 X20 F60
G1 Y-23.175 F60
G1 Z-17 F60
G1 X323 F60
G1 Y-108.175 F60
G1 X20 F60
G1 Y-23.175 F60
G1 Z-18 F60
G1 X323 F60
G1 Y-108.175 F60
G1 X20 F60
G1 Y-23.175 F60
G1 Z-19 F60
G1 X323 F60
G1 Y-108.175 F60
G1 X20 F60
G1 Y-23.175 F60
G1 Z-20 F60
G1 X323 F60
G1 Y-108.175 F60
G1 X20 F60
G1 Y-23.175 F60
G1 Z-21 F60
G1 X323 F60
(Leave a tab to hold the center in place)
G1 Y-55 F60
G1 Z5 F60
G1 Y-65 F60
G1 Z-21 F60
(End tab)
G1 Y-108.175 F60
G1 X20 F60
(Leave a tab to hold the center in place)
G1 Y-65 F60
G1 Z5 F60
G1 Y-55 F60
G1 Z-21 F60
(End tab)
G1 Y-23.175 F60
G1 Z-22 F60
G1 X323 F60
(Leave a tab to hold the center in place)
G1 Y-55 F60
G1 Z5 F60
G1 Y-65 F60
G1 Z-22 F60
(End tab)
G1 Y-108.175 F60
G1 X20 F60
(Leave a tab to hold the center in place)
G1 Y-65 F60
G1 Z5 F60
G1 Y-55 F60
G1 Z-22 F60
(End tab)
G1 Y-23.175 F60
G1 Z-23 F60
G1 X323 F60
(Leave a tab to hold the center in place)
G1 Y-55 F60
G1 Z5 F60
G1 Y-65 F60
G1 Z-23 F60
(End tab)
G1 Y-108.175 F60
G1 X20 F60
(Leave a tab to hold the center in place)
G1 Y-65 F60
G1 Z5 F60
G1 Y-55 F60
G1 Z-23 F60
(End tab)
G1 Y-23.175 F60
(End at the 0,0 for the next board)
G0 Z5
G0 X347 Y0 Z125
M30
