(Clueboard wooden case)
(2015 Oct 3, Zach White, Clueboard)
( *** UNPROVEN PROGRAM *** )
( Origin: Top left of stock )
( Material: Hardwood )
( Tool: 1/4" upcarve endmill )

(Defaults:)
G17 G21 G40 G49 G80 G90 G94 G54

(Start by going to 0,0,15. Hope you homed the machine first.)
G0 Z5
G0 X0 Y0

(Draw the box that needs to be cut out)
G0 X33 Y-36.175
G1 Z-1
G1 X334
G1 Y-119.175
G1 X33
G1 Y-36.175

(Lather, rinse, repeat, until we're through the box)
G1 Z-2
G1 X334
G1 Y-119.175
G1 X33
G1 Y-36.175
G1 Z-4
G1 X334
G1 Y-119.175
G1 X33
G1 Y-36.175
G1 Z-6
G1 X334
G1 Y-119.175
G1 X33
G1 Y-36.175
G1 Z-8
G1 X334
G1 Y-119.175
G1 X33
G1 Y-36.175
G1 Z-10
G1 X334
G1 Y-119.175
G1 X33
G1 Y-36.175
G1 Z-12
G1 X334
G1 Y-119.175
G1 X33
G1 Y-36.175
G1 Z-14
G1 X334
G1 Y-119.175
G1 X33
G1 Y-36.175
G1 Z-16
G1 X334
G1 Y-119.175
G1 X33
G1 Y-36.175
G1 Z-18
G1 X334
G1 Y-119.175
G1 X33
G1 Y-36.175
G1 Z-20
G1 X334
G1 Y-119.175
G1 X33
G1 Y-36.175
G1 Z-22
G1 X334
G1 Y-119.175
G1 X33
G1 Y-36.175
G1 Z-24
G1 X334
G1 Y-119.175
G1 X33
G1 Y-36.175
G1 Z-26
G1 X334
G1 Y-119.175
G1 X33
G1 Y-36.175
G1 Z-28
G1 X334
(Leave a tab to hold the center in place)
G1 Y-55
G1 Z-23
G1 Y-65
G1 Z-28
(End tab)
G1 Y-119.175
G1 X33
(Leave a tab to hold the center in place)
G1 Y-65
G1 Z-23
G1 Y-55
G1 Z-28
(End tab)
G1 Y-36.175
G1 Z-30
G1 X334
(Leave a tab to hold the center in place)
G1 Y-55
G1 Z-25
G1 Y-65
G1 Z-30
(End tab)
G1 Y-119.175
G1 X33
(Leave a tab to hold the center in place)
G1 Y-65
G1 Z-25
G1 Y-55
G1 Z-30
(End tab)
G1 Y-36.175
(End at the 0,0 for the next board)
G0 Z5
G0 X364 Y0 Z125
M30
